findly-builder/apps/searchassist/src/assets/icons/dashboard/dropdown-apps.svg

<svg width="13" height="13" viewBox="0 0 13 13" fill="none" xmlns="http://www.w3.org/2000/svg">
<path d="M1.5 0C0.675781 0 0 0.675781 0 1.5V11.5C0 12.3242 0.675781 13 1.5 13H11.5C12.3242 13 13 12.3242 13 11.5V1.5C13 0.675781 12.3242 0 11.5 0H1.5ZM1.5 1H11.5C11.7812 1 12 1.21875 12 1.5V11.5C12 11.7812 11.7812 12 11.5 12H1.5C1.21875 12 1 11.7812 1 11.5V1.5C1 1.21875 1.21875 1 1.5 1ZM3.35156 4.57031L2.64844 5.27734L6.5 9.12891L10.3555 5.27734L9.64453 4.57031L6.5 7.71875L3.35156 4.57031Z" fill="#8A959F"/>
</svg>

<svg width="13" height="13" fill="none" xmlns="http://www.w3.org/2000/svg"><path d="M1.5 0C.676 0 0 .676 0 1.5v10c0 .824.676 1.5 1.5 1.5h10c.824 0 1.5-.676 1.5-1.5v-10c0-.824-.676-1.5-1.5-1.5h-10Zm0 1h10c.281 0 .5.219.5.5v10c0 .281-.219.5-.5.5h-10a.494.494 0 0 1-.5-.5v-10c0-.281.219-.5.5-.5Zm1.852 3.57-.704.707L6.5 9.13l3.855-3.852-.71-.707L6.5 7.72 3.352 4.57Z" fill="#8A959F"/></svg>
